X: 213
M: C
L: 1/8
K: Am
|:\
c2(ce) d2(de) | c2(ce) dBGB | c2(ce) d2(df) | edcB A2(AB) ||
(cB).c.e (dc).d.e | (ce)(ge) (dB)(GB) | (cB).c.e (de).f.a | edcB A2A2 |]


